src/constants/svg/preferences.svg

<svg data-name="Layer 1" xmlns="http://www.w3.org/2000/svg" viewBox="0 0 1080 639.014"><path data-name="Path 103" d="M285.467 346.636l-1.153-.26c31.958-141.342 172.446-230.015 313.788-198.057A262.383 262.383 0 01796 345.676l-1.152.262c-27.208-119.463-131.908-202.9-254.612-202.9-121.096.005-228.242 85.628-254.769 203.598z" fill="#e6e6e6"/><path data-name="Path 104" d="M1080 614H0V0h1080zM2 612h1076V2H2z" fill="#3f3d56"/><circle data-name="Ellipse 12" cx="74" cy="63" r="9" fill="#3c88ff"/><circle data-name="Ellipse 13" cx="101" cy="63" r="9" fill="#f2f2f2"/><circle data-name="Ellipse 14" cx="128" cy="63" r="9" fill="#f2f2f2"/><path data-name="Path 107" d="M1037 512.215V579h-71.119A86.746 86.746 0 011037 512.215z" fill="#e6e6e6"/><path data-name="Path 108" d="M911.82 183.1l-.64-.77-239.39 198.53-.77.64 165.87 200h2.6L673.84 381.76l237.08-196.61L1037 337.18v-3.14z" fill="#e6e6e6"/><circle data-name="Ellipse 15" cx="704.534" cy="222.815" r="61.692" fill="#a0616a"/><path data-name="Path 111" d="M807.086 352.978l-34.33 99.534v.01l-16.545 47.99s-1.69 76.304-3.387 76.304c-.352 0-.853 1.1-1.416 2.833H587.012l13.194-140.19-.809-6.532-10.32-83.73a41.962 41.962 0 0127.73-44.72l17.244-6.063a136.524 136.524 0 0170.51-5.376 136.524 136.524 0 0157.61 25.653z" fill="#3c88ff"/><path data-name="Path 113" d="M758.033 173.112s-19.587-42.438-57.133-32.645-58.761 24.484-60.393 39.174.816 36.726.816 36.726 4.081-30.2 30.2-23.668 66.922 1.632 66.922 1.632l6.529 58.761s7.345-10.61 15.506-4.081 23.669-62.841-2.447-75.899z" fill="#2f2e41"/><path data-name="Path 114" d="M839.306 507.293s0 38.746-14.24 72.356h-48.933l.431-1.135 13.564-59.355-5.084-20.345-12.288-46.293v-.009a135.33 135.33 0 011.086-73.28l.556-1.872a34.102 34.102 0 0132.688-24.382s22.043 18.656 20.345 54.262z" fill="#3c88ff"/><path data-name="Path 121" d="M980.387 122.039a33.376 33.376 0 1133.376-33.376 33.376 33.376 0 01-33.376 33.376zm0-65.2a31.824 31.824 0 1031.824 31.824 31.824 31.824 0 00-31.824-31.824z" fill="#ccc"/><path data-name="Path 123" d="M1037 581.5H43v-549h994zm-992.159-1.788h990.318V34.288H44.84z" fill="#ccc"/><path data-name="Path 122" d="M994.448 75.97l-.729-.729-13.554 13.555-13.555-13.555-.729.729 13.554 13.554-11.75 11.75.729.729 11.75-11.75 11.75 11.75.729-.729-11.75-11.75z" fill="#3f3d56"/><path data-name="Path 146" d="M415.826 347.446H76.952A11.969 11.969 0 0065 359.398v130.768a11.969 11.969 0 0011.952 11.957h338.874a11.969 11.969 0 0011.952-11.952V359.398a11.969 11.969 0 00-11.952-11.952zm10.546 142.721a10.559 10.559 0 01-10.546 10.546H76.952a10.559 10.559 0 01-10.546-10.546V359.398a10.559 10.559 0 0110.546-10.546h338.874a10.559 10.559 0 0110.546 10.546z" fill="#3f3d56"/><path data-name="Path 141" d="M396.003 385.445H218.481c-5.156 0-9.39 3.4-9.591 7.686a2.142 2.142 0 00-.015.314c.007 4.416 4.3 7.994 9.606 8h177.522c5.305 0 9.606-3.582 9.606-8s-4.3-8-9.606-8z" fill="#3c88ff"/><path data-name="Path 141-2" d="M396.003 417.446H218.481c-5.156 0-9.39 3.4-9.591 7.686a2.142 2.142 0 00-.015.314c.007 4.416 4.3 7.994 9.606 8h177.522c5.305 0 9.606-3.582 9.606-8s-4.301-8-9.606-8z" fill="#3c88ff"/><path data-name="Path 141-3" d="M396.003 449.446H218.481c-5.156 0-9.39 3.4-9.591 7.686a2.142 2.142 0 00-.015.314c.007 4.416 4.3 7.994 9.606 8h177.522c5.305 0 9.606-3.582 9.606-8s-4.3-8-9.606-8z" fill="#3c88ff"/><path data-name="Path 140" d="M134.988 467.445a42.353 42.353 0 1142.353-42.353 42.353 42.353 0 01-42.353 42.353zm0-83.245a40.892 40.892 0 1040.892 40.892 40.892 40.892 0 00-40.892-40.892z" fill="#3f3d56"/><path data-name="Path 118" d="M296 563h-36v-36h36zm-34-2h32v-32h-32z" fill="#ff6584"/><path data-name="Path 119" d="M217.185 551.525l-12.861-11.788 1.352-1.474 11.139 10.212 25.353-38.03 1.664 1.11z" fill="#3f3d56"/><path data-name="Path 120" d="M230 536v25h-32v-32h25v-2h-27v36h36v-27z" fill="#e5e5e5"/><circle data-name="Ellipse 18" cx="119.5" cy="438.5" r="23.5" fill="#3c88ff"/><path d="M426.901 619.09a18.724 18.724 0 0122.939-17.267l35.48-56.29 14.269 31.495-35.88 48.626a18.825 18.825 0 01-36.808-6.564z" fill="#a0616a"/><path data-name="Path 115" d="M612.177 310.868l-1.958.346c-21.997 3.885-40.648 18.905-48.35 39.873q-.347.943-.665 1.897l-13.566 61.044-93.266 178.053 28.831 16.955s79.7-93.265 89.874-125.485l40.967-78.785a25.532 25.532 0 002.86-12.76l-3.07-79.8a1.413 1.413 0 00-1.658-1.338z" fill="#3c88ff"/></svg>

<?xml version="1.0" encoding="UTF-8" standalone="no"?>
<!DOCTYPE svg PUBLIC "-//W3C//DTD SVG 1.1//EN" "http://www.w3.org/Graphics/SVG/1.1/DTD/svg11.dtd">
<svg width="100%" height="100%" viewBox="0 0 1080 640" version="1.1" xmlns="http://www.w3.org/2000/svg" xmlns:xlink="http://www.w3.org/1999/xlink" xml:space="preserve" xmlns:serif="http://www.serif.com/" style="fill-rule:evenodd;clip-rule:evenodd;stroke-linejoin:round;stroke-miterlimit:2;">
    <path d="M285.467,346.636L284.314,346.376C316.272,205.034 456.76,116.361 598.102,148.319C696.369,170.538 773.513,247.471 796,345.676L794.848,345.938C767.64,226.475 662.94,143.038 540.236,143.038C419.14,143.043 311.994,228.666 285.467,346.636Z" style="fill:rgb(230,230,230);fill-rule:nonzero;"/>
    <path d="M1080,614L0,614L0,0L1080,0L1080,614ZM2,612L1078,612L1078,2L2,2L2,612Z" style="fill:rgb(63,61,86);fill-rule:nonzero;"/>
    <circle cx="74" cy="63" r="9" style="fill:rgb(217,119,6);"/>
    <circle cx="101" cy="63" r="9" style="fill:rgb(242,242,242);"/>
    <circle cx="128" cy="63" r="9" style="fill:rgb(242,242,242);"/>
    <path d="M1037,512.215L1037,579L965.881,579C973.62,544.328 1001.91,517.762 1037,512.215Z" style="fill:rgb(230,230,230);fill-rule:nonzero;"/>
    <path d="M911.82,183.1L911.18,182.33L671.79,380.86L671.02,381.5L836.89,581.5L839.49,581.5L673.84,381.76L910.92,185.15L1037,337.18L1037,334.04L911.82,183.1Z" style="fill:rgb(230,230,230);fill-rule:nonzero;"/>
    <circle cx="704.534" cy="222.815" r="61.692" style="fill:rgb(160,97,106);"/>
    <path d="M807.086,352.978L772.756,452.512L772.756,452.522L756.211,500.512C756.211,500.512 754.521,576.816 752.824,576.816C752.472,576.816 751.971,577.916 751.408,579.649L587.012,579.649L600.206,439.459L599.397,432.927L589.077,349.197C586.674,329.697 598.272,310.993 616.807,304.477L634.051,298.414C656.673,290.461 680.995,288.607 704.561,293.038C725.502,296.976 745.234,305.762 762.171,318.691L807.086,352.978Z" style="fill:rgb(217,119,6);fill-rule:nonzero;"/>
    <path d="M758.033,173.112C758.033,173.112 738.446,130.674 700.9,140.467C663.354,150.26 642.139,164.951 640.507,179.641C638.875,194.331 641.323,216.367 641.323,216.367C641.323,216.367 645.404,186.167 671.523,192.699C697.642,199.231 738.445,194.331 738.445,194.331L744.974,253.092C744.974,253.092 752.319,242.482 760.48,249.011C768.641,255.54 784.149,186.17 758.033,173.112Z" style="fill:rgb(47,46,65);fill-rule:nonzero;"/>
    <path d="M839.306,507.293C839.306,507.293 839.306,546.039 825.066,579.649L776.133,579.649L776.564,578.514L790.128,519.159L785.044,498.814L772.756,452.521L772.756,452.512C766.372,428.453 766.747,403.092 773.842,379.232L774.398,377.36C778.687,362.937 792.039,352.978 807.086,352.978C822.133,352.978 829.129,371.634 827.431,407.24L839.306,507.293Z" style="fill:rgb(217,119,6);fill-rule:nonzero;"/>
    <path d="M980.387,122.039C962.077,122.039 947.011,106.973 947.011,88.663C947.011,70.353 962.077,55.287 980.387,55.287C998.697,55.287 1013.76,70.353 1013.76,88.663C1013.76,106.973 998.697,122.039 980.387,122.039ZM980.387,56.839C962.929,56.839 948.563,71.205 948.563,88.663C948.563,106.121 962.929,120.487 980.387,120.487C997.845,120.487 1012.21,106.121 1012.21,88.663C1012.21,71.205 997.845,56.839 980.387,56.839Z" style="fill:rgb(204,204,204);fill-rule:nonzero;"/>
    <path d="M1037,581.5L43,581.5L43,32.5L1037,32.5L1037,581.5ZM44.841,579.712L1035.16,579.712L1035.16,34.288L44.84,34.288L44.841,579.712Z" style="fill:rgb(204,204,204);fill-rule:nonzero;"/>
    <path d="M994.448,75.97L993.719,75.241L980.165,88.796L966.61,75.241L965.881,75.97L979.435,89.524L967.685,101.274L968.414,102.003L980.164,90.253L991.914,102.003L992.643,101.274L980.893,89.524L994.448,75.97Z" style="fill:rgb(63,61,86);fill-rule:nonzero;"/>
    <path d="M415.826,347.446L76.952,347.446C70.399,347.455 65.009,352.845 65,359.398L65,490.166C65.007,496.721 70.397,502.114 76.952,502.123L415.826,502.123C422.379,502.114 427.769,496.724 427.778,490.171L427.778,359.398C427.769,352.845 422.379,347.455 415.826,347.446ZM426.372,490.167C426.365,495.95 421.609,500.706 415.826,500.713L76.952,500.713C71.169,500.706 66.413,495.95 66.406,490.167L66.406,359.398C66.413,353.615 71.169,348.859 76.952,348.852L415.826,348.852C421.609,348.859 426.365,353.615 426.372,359.398L426.372,490.167Z" style="fill:rgb(63,61,86);fill-rule:nonzero;"/>
    <path d="M396.003,385.445L218.481,385.445C213.325,385.445 209.091,388.845 208.89,393.131C208.877,393.235 208.872,393.34 208.875,393.445C208.882,397.861 213.175,401.439 218.481,401.445L396.003,401.445C401.308,401.445 405.609,397.863 405.609,393.445C405.609,389.027 401.309,385.445 396.003,385.445Z" style="fill:rgb(217,119,6);fill-rule:nonzero;"/>
    <path d="M396.003,417.446L218.481,417.446C213.325,417.446 209.091,420.846 208.89,425.132C208.877,425.236 208.872,425.341 208.875,425.446C208.882,429.862 213.175,433.44 218.481,433.446L396.003,433.446C401.308,433.446 405.609,429.864 405.609,425.446C405.609,421.028 401.308,417.446 396.003,417.446Z" style="fill:rgb(217,119,6);fill-rule:nonzero;"/>
    <path d="M396.003,449.446L218.481,449.446C213.325,449.446 209.091,452.846 208.89,457.132C208.877,457.236 208.872,457.341 208.875,457.446C208.882,461.862 213.175,465.44 218.481,465.446L396.003,465.446C401.308,465.446 405.609,461.864 405.609,457.446C405.609,453.028 401.309,449.446 396.003,449.446Z" style="fill:rgb(217,119,6);fill-rule:nonzero;"/>
    <path d="M134.988,467.445C111.754,467.445 92.635,448.326 92.635,425.092C92.635,401.858 111.754,382.739 134.988,382.739C158.222,382.739 177.341,401.858 177.341,425.092C177.341,448.326 158.222,467.445 134.988,467.445ZM134.988,384.2C112.555,384.2 94.096,402.659 94.096,425.092C94.096,447.525 112.555,465.984 134.988,465.984C157.421,465.984 175.88,447.525 175.88,425.092C175.88,402.659 157.421,384.2 134.988,384.2Z" style="fill:rgb(63,61,86);fill-rule:nonzero;"/>
    <path d="M296,563L260,563L260,527L296,527L296,563ZM262,561L294,561L294,529L262,529L262,561Z" style="fill:rgb(255,101,132);fill-rule:nonzero;"/>
    <path d="M217.185,551.525L204.324,539.737L205.676,538.263L216.815,548.475L242.168,510.445L243.832,511.555L217.185,551.525Z" style="fill:rgb(63,61,86);fill-rule:nonzero;"/>
    <path d="M230,536L230,561L198,561L198,529L223,529L223,527L196,527L196,563L232,563L232,536L230,536Z" style="fill:rgb(229,229,229);fill-rule:nonzero;"/>
    <circle cx="119.5" cy="438.5" r="23.5" style="fill:rgb(217,119,6);"/>
    <path d="M426.901,619.09C427.414,609.197 435.694,601.337 445.6,601.337C447.027,601.337 448.45,601.5 449.84,601.823L485.32,545.533L499.589,577.028L463.709,625.654C461.31,633.568 453.963,639.017 445.694,639.017C435.367,639.017 426.869,630.519 426.869,620.192C426.869,619.825 426.879,619.457 426.901,619.09Z" style="fill:rgb(160,97,106);fill-rule:nonzero;"/>
    <path d="M612.177,310.868L610.219,311.214C588.222,315.099 569.571,330.119 561.869,351.087C561.638,351.716 561.416,352.348 561.204,352.984L547.638,414.028L454.372,592.081L483.203,609.036C483.203,609.036 562.903,515.771 573.077,483.551L614.044,404.766C616.089,400.833 617.074,396.435 616.904,392.006L613.834,312.206C613.805,311.452 613.177,310.846 612.422,310.846C612.34,310.846 612.257,310.854 612.176,310.868L612.177,310.868Z" style="fill:rgb(217,119,6);fill-rule:nonzero;"/>
</svg>
